src/16/actions/mail-mark-notjunk.svg

<svg xmlns="http://www.w3.org/2000/svg" viewBox="0 0 16 16">
  <defs id="defs3051">
    <style type="text/css" id="current-color-scheme">
      .ColorScheme-Text {
        color:#5d656b;
      }
      </style>
  </defs>
 <path style="fill:currentColor;fill-opacity:1;stroke:none" 
     d="M 1 2 L 1 14 L 9 14 L 9 13 L 2.65625 13 L 6.6425781 8.3496094 L 8 9.7070312 C 7.986852 9.6833613 14 3.7070312 14 3.7070312 L 14 8 L 15 8 L 15 2 L 1 2 z M 2.7070312 3 L 13.292969 3 L 8 8.2929688 L 2.7070312 3 z M 2 3.7070312 L 5.9335938 7.640625 L 2 12.230469 L 2 3.7070312 z M 14.689453 8.7636719 L 11.332031 12.542969 L 9.7070312 10.917969 L 9 11.625 L 11.375 14 L 15.398438 9.4726562 L 14.689453 8.7636719 z "
     class="ColorScheme-Text"
     />
</svg>

<svg xmlns="http://www.w3.org/2000/svg" viewBox="0 0 16 16"><path d="M1 2v12h8v-1H2.656l3.987-4.65L8 9.707c-.013-.024 6-6 6-6V8h1V2H1zm1.707 1h10.586L8 8.293 2.707 3zM2 3.707l3.934 3.934L2 12.23V3.706zm12.69 5.057l-3.358 3.779-1.625-1.625-.707.707L11.375 14l4.023-4.527-.709-.71z" fill="currentColor" color="#5d656b"/></svg>
